X:406
T:Lady Charlotte Menzies
R:Reel
B:The Athole Collection
M:C|
L:1/8
K:F
c|A/B/c fc dfcf|BgAf gGGB|A/B/c fc dfcA|BdcA F/F/F ~F:|
f|cFdF cFAf|cFAF GABd|cFdF cFAc|BdcA F/F/F Ff|cFdF cFAc|
cFAF GABa|gefd cAfd|cABG F/F/F ~F||

